Newaita/actions/16/meeting-participant-request-response.svg

<svg height="16" viewBox="0 0 16 16" width="16" xmlns="http://www.w3.org/2000/svg"><g fill="#424242"><path d="m5.621094 4.425781c-1.285156 0-2.316406 1.03125-2.316406 2.316407 0 1.28125 1.03125 2.3125 2.316406 2.3125 1.28125 0 2.3125-1.03125 2.3125-2.3125 0-1.285157-1.03125-2.316407-2.3125-2.316407zm0 1.320313c.546875 0 .992187.445312.992187.996094 0 .546874-.445312.992187-.992187.992187-.550782 0-.992188-.445313-.992188-.992187 0-.550782.441406-.996094.992188-.996094zm0 0"/><path d="m2.3125 11.039062c-.550781 0-.992188.445313-.992188.992188v1.65625c0 .546875.441407.992188.992188.992188h6.613281c.550781 0 .992188-.445313.992188-.992188v-1.65625c0-.546875-.441407-.992188-.992188-.992188h-.328125v1.984376c0 .183593-.148437.332031-.332031.332031h-5.292969c-.183594 0-.328125-.148438-.328125-.332031v-1.984376zm0 0"/><path d="m3.964844 9.390625c-.4375 0-.972656.089844-1.484375.292969-.253907.101562-.503907.234375-.730469.4375-.222656.207031-.425781.535156-.425781.917968v.992188c-.003907.238281.121093.460938.324219.578125.207031.121094.460937.121094.664062 0 .207031-.117187.332031-.339844.328125-.578125v-.9375c.003906-.003906 0 0 .003906-.003906.046875-.042969.167969-.121094.324219-.183594.269531-.105469.636719-.175781.878906-.191406 1.292969.597656 2.523438.621094 3.59375.003906.242188.023438.578125.089844.828125.1875.15625.0625.277344.140625.324219.183594.007812.003906.003906 0 .007812.003906v.9375c-.003906.238281.121094.460938.324219.578125.207031.121094.460938.121094.664063 0 .207031-.117187.332031-.339844.328125-.578125v-.992188c0-.382812-.207031-.710937-.429688-.917968-.222656-.203125-.472656-.335938-.730469-.4375-.511718-.203125-1.042968-.292969-1.484374-.292969-.128907 0-.257813.039063-.363282.109375-.824218.550781-1.445312.5625-2.648437-.042969-.09375-.042969-.195313-.066406-.296875-.066406zm0 0"/><path d="m9.59375 2.769531h.660156c.183594 0 .332032.148438.332032.332031v.660157c0 .183593-.148438.332031-.332032.332031h-.660156c-.183594 0-.332031-.148438-.332031-.332031v-.660157c0-.183593.148437-.332031.332031-.332031zm0 0"/><path d="m11.578125 2.769531h.660156c.183594 0 .332031.148438.332031.332031v.660157c0 .183593-.148437.332031-.332031.332031h-.660156c-.183594 0-.332031-.148438-.332031-.332031v-.660157c0-.183593.148437-.332031.332031-.332031zm0 0"/><path d="m13.5625 2.769531h.660156c.183594 0 .332032.148438.332032.332031v.660157c0 .183593-.148438.332031-.332032.332031h-.660156c-.183594 0-.332031-.148438-.332031-.332031v-.660157c0-.183593.148437-.332031.332031-.332031zm0 0"/></g></svg>

<?xml version="1.0" encoding="UTF-8"?>
<svg xmlns="http://www.w3.org/2000/svg" xmlns:xlink="http://www.w3.org/1999/xlink" width="16px" height="16px" viewBox="0 0 16 16" version="1.1">
<g id="surface1">
<path style=" stroke:none;fill-rule:nonzero;fill:rgb(25.882354%,25.882354%,25.882354%);fill-opacity:1;" d="M 5.621094 4.425781 C 4.335938 4.425781 3.304688 5.457031 3.304688 6.742188 C 3.304688 8.023438 4.335938 9.054688 5.621094 9.054688 C 6.902344 9.054688 7.933594 8.023438 7.933594 6.742188 C 7.933594 5.457031 6.902344 4.425781 5.621094 4.425781 Z M 5.621094 5.746094 C 6.167969 5.746094 6.613281 6.191406 6.613281 6.742188 C 6.613281 7.289062 6.167969 7.734375 5.621094 7.734375 C 5.070312 7.734375 4.628906 7.289062 4.628906 6.742188 C 4.628906 6.191406 5.070312 5.746094 5.621094 5.746094 Z M 5.621094 5.746094 "/>
<path style=" stroke:none;fill-rule:nonzero;fill:rgb(25.882354%,25.882354%,25.882354%);fill-opacity:1;" d="M 2.3125 11.039062 C 1.761719 11.039062 1.320312 11.484375 1.320312 12.03125 L 1.320312 13.6875 C 1.320312 14.234375 1.761719 14.679688 2.3125 14.679688 L 8.925781 14.679688 C 9.476562 14.679688 9.917969 14.234375 9.917969 13.6875 L 9.917969 12.03125 C 9.917969 11.484375 9.476562 11.039062 8.925781 11.039062 L 8.597656 11.039062 L 8.597656 13.023438 C 8.597656 13.207031 8.449219 13.355469 8.265625 13.355469 L 2.972656 13.355469 C 2.789062 13.355469 2.644531 13.207031 2.644531 13.023438 L 2.644531 11.039062 Z M 2.3125 11.039062 "/>
<path style=" stroke:none;fill-rule:nonzero;fill:rgb(25.882354%,25.882354%,25.882354%);fill-opacity:1;" d="M 3.964844 9.390625 C 3.527344 9.390625 2.992188 9.480469 2.480469 9.683594 C 2.226562 9.785156 1.976562 9.917969 1.75 10.121094 C 1.527344 10.328125 1.324219 10.65625 1.324219 11.039062 L 1.324219 12.03125 C 1.320312 12.269531 1.445312 12.492188 1.648438 12.609375 C 1.855469 12.730469 2.109375 12.730469 2.3125 12.609375 C 2.519531 12.492188 2.644531 12.269531 2.640625 12.03125 L 2.640625 11.09375 C 2.644531 11.089844 2.640625 11.09375 2.644531 11.089844 C 2.691406 11.046875 2.8125 10.96875 2.96875 10.90625 C 3.238281 10.800781 3.605469 10.730469 3.847656 10.714844 C 5.140625 11.3125 6.371094 11.335938 7.441406 10.71875 C 7.683594 10.742188 8.019531 10.808594 8.269531 10.90625 C 8.425781 10.96875 8.546875 11.046875 8.59375 11.089844 C 8.601562 11.09375 8.597656 11.089844 8.601562 11.09375 L 8.601562 12.03125 C 8.597656 12.269531 8.722656 12.492188 8.925781 12.609375 C 9.132812 12.730469 9.386719 12.730469 9.589844 12.609375 C 9.796875 12.492188 9.921875 12.269531 9.917969 12.03125 L 9.917969 11.039062 C 9.917969 10.65625 9.710938 10.328125 9.488281 10.121094 C 9.265625 9.917969 9.015625 9.785156 8.757812 9.683594 C 8.246094 9.480469 7.714844 9.390625 7.273438 9.390625 C 7.144531 9.390625 7.015625 9.429688 6.910156 9.5 C 6.085938 10.050781 5.464844 10.0625 4.261719 9.457031 C 4.167969 9.414062 4.066406 9.390625 3.964844 9.390625 Z M 3.964844 9.390625 "/>
<path style=" stroke:none;fill-rule:nonzero;fill:rgb(25.882354%,25.882354%,25.882354%);fill-opacity:1;" d="M 9.59375 2.769531 L 10.253906 2.769531 C 10.4375 2.769531 10.585938 2.917969 10.585938 3.101562 L 10.585938 3.761719 C 10.585938 3.945312 10.4375 4.09375 10.253906 4.09375 L 9.59375 4.09375 C 9.410156 4.09375 9.261719 3.945312 9.261719 3.761719 L 9.261719 3.101562 C 9.261719 2.917969 9.410156 2.769531 9.59375 2.769531 Z M 9.59375 2.769531 "/>
<path style=" stroke:none;fill-rule:nonzero;fill:rgb(25.882354%,25.882354%,25.882354%);fill-opacity:1;" d="M 11.578125 2.769531 L 12.238281 2.769531 C 12.421875 2.769531 12.570312 2.917969 12.570312 3.101562 L 12.570312 3.761719 C 12.570312 3.945312 12.421875 4.09375 12.238281 4.09375 L 11.578125 4.09375 C 11.394531 4.09375 11.246094 3.945312 11.246094 3.761719 L 11.246094 3.101562 C 11.246094 2.917969 11.394531 2.769531 11.578125 2.769531 Z M 11.578125 2.769531 "/>
<path style=" stroke:none;fill-rule:nonzero;fill:rgb(25.882354%,25.882354%,25.882354%);fill-opacity:1;" d="M 13.5625 2.769531 L 14.222656 2.769531 C 14.40625 2.769531 14.554688 2.917969 14.554688 3.101562 L 14.554688 3.761719 C 14.554688 3.945312 14.40625 4.09375 14.222656 4.09375 L 13.5625 4.09375 C 13.378906 4.09375 13.230469 3.945312 13.230469 3.761719 L 13.230469 3.101562 C 13.230469 2.917969 13.378906 2.769531 13.5625 2.769531 Z M 13.5625 2.769531 "/>
</g>
</svg>
